X:139
T:Money In Both Pockets. Dal.143
M:6/8
L:1/8
Q:3/8=90
N:NB A/B/c/ In Mss
B:R.Dalton MS, 1841, Sheffield
Z:Village Music Project, 2019 Steve Mansfield
K:D
"NB"(3A/B/c/ | d2F FEF | A>BA AGF | d2F FEF | B3 gec |
d2F FEF | A>BA AGF | EFE EFA | B3 d3 :|
|: d2f afd | c2d ecA | d2f afd f3 g3 |
agf gfe | fed edc | dcB AGF | B3 d3 :|

